icons-rebrand/svg/create-a-group-filled.svg

<svg width="32" height="32" viewBox="0 0 32 32" xmlns="http://www.w3.org/2000/svg">
<path fill-rule="evenodd" clip-rule="evenodd" d="M11 27C11 26.4477 11.4477 26 12 26L24 26C24.5523 26 25 26.4477 25 27C25 27.5523 24.5523 28 24 28L12 28C11.4477 28 11 27.5523 11 27Z" fill="black"/>
<path fill-rule="evenodd" clip-rule="evenodd" d="M7 4C4.79086 4 3 5.79086 3 8V18C3 20.2091 4.79086 22 7 22H25C27.2091 22 29 20.2091 29 18V8C29 5.79086 27.2091 4 25 4H7ZM7.5 11.5047C8.32843 11.5047 9 10.8331 9 10.0047C9 9.17623 8.32843 8.50465 7.5 8.50465C6.67157 8.50465 6 9.17623 6 10.0047C6 10.8331 6.67157 11.5047 7.5 11.5047ZM11 10C11 9.44772 11.4477 9 12 9L24 9C24.5523 9 25 9.44772 25 10C25 10.5523 24.5523 11 24 11L12 11C11.4477 11 11 10.5523 11 10ZM11 16C11 15.4477 11.4477 15 12 15L24 15C24.5523 15 25 15.4477 25 16C25 16.5523 24.5523 17 24 17L12 17C11.4477 17 11 16.5523 11 16ZM9 16.0047C9 16.8331 8.32843 17.5047 7.5 17.5047C6.67157 17.5047 6 16.8331 6 16.0047C6 15.1762 6.67157 14.5047 7.5 14.5047C8.32843 14.5047 9 15.1762 9 16.0047Z" fill="black"/>
<path d="M9 27.0047C9 27.8331 8.32843 28.5047 7.5 28.5047C6.67157 28.5047 6 27.8331 6 27.0047C6 26.1762 6.67157 25.5047 7.5 25.5047C8.32843 25.5047 9 26.1762 9 27.0047Z" fill="black"/>
</svg>

<svg width="32" height="32" viewBox="0 0 32 32" xmlns="http://www.w3.org/2000/svg"><path d="M11 27a1 1 0 0 1 1-1h12a1 1 0 1 1 0 2H12a1 1 0 0 1-1-1ZM7 4a4 4 0 0 0-4 4v10a4 4 0 0 0 4 4h18a4 4 0 0 0 4-4V8a4 4 0 0 0-4-4H7Zm.5 7.505a1.5 1.5 0 1 0 0-3 1.5 1.5 0 0 0 0 3ZM11 10a1 1 0 0 1 1-1h12a1 1 0 1 1 0 2H12a1 1 0 0 1-1-1Zm0 6a1 1 0 0 1 1-1h12a1 1 0 1 1 0 2H12a1 1 0 0 1-1-1Zm-2 .005a1.5 1.5 0 1 1-3 0 1.5 1.5 0 0 1 3 0ZM9 27.005a1.5 1.5 0 1 1-3 0 1.5 1.5 0 0 1 3 0Z"/></svg>
